X: 272
T: Bonaparte Crossing the Rhine [1]
B: canberra pickers and fiddlers
B: tunes
M:C
L:1/8
R: march
Q: 1/4=100
K:D
V:1 
FG | "D"A>B AF A2 de | f>e fa d2 dc | "G"BcdB "D"AFDF | "A7"E2 E>F E2 FG | 
"D"A>B AF A2 de | f>e fa d2 dc | "G"BcdB "D"AF"A"EF | "D"D2 DE D2 :: de |
"D"f>e fg a2 dc | "G"B>A Bc "D"d2 AA | "G"B>c dB "D"AFDF | "A7"E2 E>F E2 FG | 
"D"A>B AF A2 de |fefa d2 dc | "G"B>c dB "D"AF"A"EF | "D"D2 DE D2 :||
% abcbook-tune_id 63ae8f1c819372dd3e7ad925
% abcbook-tune_composer_id 
% abcbook-link-0 https://www.youtube.com/watch?v=8S4rHbXWL6Q
% abcbook-link-start-at-0 11
% abcbook-link-end-at-0 160
% abcbook-boost 0
% abcbook-difficulty 8
% abcbook-tags canberra pickers and fiddlers,old time tunes,steve ryan,© free
% abcbook-tablature 
% abcbook-transpose 
% abcbook-tuning ADAE
% abcbook-lastupdated 1694558527795
% abcbook-src-url https://tunebook.net/scrape/tunes.abc
% abcbook-soundfonts 
% abcbook-repeats 1


